X: 31
T: Che fa la ramacina
N: Derived from Com3051-Che_fa_la_ramacina.krn
C: Loyset Comp\`ere
%%abc-version 2.0
%%abcx-abcm2ps-target-version 5.9.1 (29 Sep 2008)
%%abc-creator hum2abc beta
%%abcx-conversion-date 2019/02/16 20:28:09
%%abc-edited-by Jesse Rodin
%%abc-edited-by Megan K. Eagen 2013/11/29
%%abcx-initial-encoding-date 2013/11/29/
%%humdrum-veritas 528311132
%%humdrum-veritas-data 1692181141
%%linebreak <none>
%%barnumbers 0
L: 1/4
M: 2/1
Q: 1/2=120
%%staves [1 2 3 4]
V: 1 clef=treble
V: 2 clef=treble-8
V: 3 clef=treble-8
V: 4 clef=bass
K: F
[V:1] z8 | 
[V:2] z4G4 | 
[V:3] z8 | 
[V:4] z8 | 
[V:1] z8 | 
[V:2] G4d4 | 
[V:3] z8 | 
[V:4] z4G,,4 | 
[V:1] z4D4 | 
[V:2] d4d4 | 
[V:3] z2D2D2A2 | 
[V:4] G,,4D,4 | 
[V:1] F4F4 | 
[V:2] d4z2d2- | 
[V:3] A2A2A4 | 
[V:4] D,4D,4 | 
[V:1] F4F4 | 
[V:2] dcBAB4 | 
[V:3] AGFEF4 | 
[V:4] D,8 | 
[V:1] E6DC | 
[V:2] c4c4 | 
[V:3] G8- | 
[V:4] C,6B,,A,, | 
[V:1] D4E4 | 
[V:2] z8 | 
[V:3] G8- | 
[V:4] B,,4C,4 | 
[V:1] E4z2E2- | 
[V:2] z4c4- | 
[V:3] G8 | 
[V:4] C,8 | 
[V:1] E2D2D2C2 | 
[V:2] c2B2B2A2 | 
[V:3] z8 | 
[V:4] z8 | 
[V:1] B,2B,2A,4 | 
[V:2] A2G2A4 | 
[V:3] z4A4- | 
[V:4] z4F,4- | 
[V:1] z8 | 
[V:2] z8 | 
[V:3] A2G2G2F2 | 
[V:4] F,2E,2E,2D,2 | 
[V:1] z4z2F2 | 
[V:2] z8 | 
[V:3] E2E2D4 | 
[V:4] D,2^C,2D,4- | 
[V:1] F2F2F4 | 
[V:2] z2B2B2B2 | 
[V:3] z2d2d2d2 | 
[V:4] D,4z4 | 
[V:1] F4F2G2- | 
[V:2] B2B2B4- | 
[V:3] d2d2d4- | 
[V:4] z8 | 
[V:1] GFF4E2 | 
[V:2] B2A2G2G2 | 
[V:3] d2c2B2B2 | 
[V:4] z8 | 
[V:1] F4D4 | 
[V:2] F4B4 | 
[V:3] c2F2F2F2 | 
[V:4] z2B,,2B,,2B,,2 | 
[V:1] z8 | 
[V:2] z8 | 
[V:3] F2F2G4- | 
[V:4] B,,2B,,2B,,4- | 
[V:1] z8 | 
[V:2] z8 | 
[V:3] G2F2F2E2 | 
[V:4] B,,2A,,2G,,2G,,2 | 
[V:1] F6E2 | 
[V:2] A6G2 | 
[V:3] F4z4 | 
[V:4] F,,4z4 | 
[V:1] E2D2D2^C2 | 
[V:2] G3FE2E2 | 
[V:3] z8 | 
[V:4] z8 | 
[V:1] D4z4 | 
[V:2] D6z2 | 
[V:3] B6A2 | 
[V:4] D,6C,2 | 
[V:1] z8 | 
[V:2] z8 | 
[V:3] A2G2G2F2 | 
[V:4] C,3B,,A,,2A,,2 | 
[V:1] B6A2 | 
[V:2] d6e2 | 
[V:3] GABcdBc2- | 
[V:4] G,,4z2C,2 | 
[V:1] A2G2G2^F2 | 
[V:2] e2d2e2d2 | 
[V:3] cGB2A4 | 
[V:4] C,2B,,2C,2D,2 | 
[V:1] G8- | 
[V:2] B6AG | 
[V:3] G8- | 
[V:4] G,,8- | 
[V:1] G8 |]  
[V:2] d8 |]  
[V:3] G8 |]  
[V:4] G,,8 |]  



